libs/ui/packages/crypto-icons/src/svg/DNT.svg

<svg width="24" height="24" viewBox="0 0 24 24" fill="none">
<path d="M18.8064 14.3252C19.2012 14.3056 19.5779 14.1531 19.8751 13.8925C19.4619 16.0045 18.3069 18.0827 16.3246 19.225C14.8081 20.1084 12.9121 20.4025 11.0686 20.1775C10.7926 19.381 10.0689 18.5327 8.81115 17.8922C6.8289 16.8707 5.89815 15.1045 5.05365 15.97C4.97565 16.045 4.91115 16.1327 4.8639 16.2295C4.82615 16.1501 4.79162 16.0693 4.7604 15.9872C3.1404 11.9702 4.7604 7.9352 8.0004 5.04395C9.9309 3.32945 12.1884 3.51995 14.2051 4.4552C14.0841 4.55297 13.987 4.67711 13.9212 4.81814C13.8554 4.95917 13.8227 5.11336 13.8256 5.26895V9.32045C12.9873 8.83224 12.0023 8.65904 11.0477 8.83198C10.0931 9.00492 9.23145 9.51266 8.61765 10.264C8.00141 11.0168 7.67124 11.9634 7.68552 12.9362C7.69979 13.909 8.05759 14.8455 8.69565 15.58C9.3315 16.3126 10.2078 16.7945 11.1671 16.9389C12.1263 17.0834 13.1057 16.8811 13.9291 16.3682C14.03 16.5855 14.2022 16.7617 14.4171 16.8675C14.632 16.9732 14.8767 17.0023 15.1104 16.9497C15.3441 16.8971 15.5527 16.766 15.7016 16.5784C15.8505 16.3907 15.9306 16.1577 15.9286 15.9182V5.4767C17.4797 6.5672 18.7201 7.95245 19.2886 8.90495C19.5661 9.38345 19.7641 9.90395 19.8751 10.4462C19.6314 10.2662 19.3471 10.1462 19.0479 10.0997C18.4104 10.0652 17.9274 10.9315 18.2551 12.1772C18.5311 13.3037 18.1861 14.2907 18.8064 14.3252ZM11.0341 14.3942C8.86215 13.1477 10.6891 9.94445 12.8611 11.1909C13.5159 11.5547 13.5849 12.715 13.4641 13.459C13.2399 14.7407 12.0339 14.9657 11.0341 14.3942ZM12.0511 6.1172C11.5681 6.13445 11.2239 6.7232 11.2411 6.98345C11.2576 7.24295 11.6199 7.39895 12.1194 7.2257C12.5679 7.0697 12.9819 7.1732 12.9639 6.9137C12.9466 6.6542 12.5161 6.09995 12.0511 6.1172Z" fill="#2C398F"/>
</svg>

<svg width="24" height="24" viewBox="0 0 24 24" fill="none"><path fill="#2c398f" d="M18.806 14.325c.395-.02.772-.172 1.07-.432-.414 2.111-1.57 4.19-3.551 5.332-1.517.883-3.413 1.177-5.256.952-.276-.796-1-1.644-2.258-2.285-1.982-1.021-2.913-2.787-3.757-1.922a.9.9 0 0 0-.19.26 3 3 0 0 1-.104-.243C3.14 11.97 4.76 7.935 8 5.044c1.93-1.715 4.188-1.524 6.205-.589a1.02 1.02 0 0 0-.38.814V9.32a4.076 4.076 0 0 0-5.207.944 4.12 4.12 0 0 0 .078 5.316 4.076 4.076 0 0 0 5.233.788 1.049 1.049 0 0 0 2-.45V5.477c1.55 1.09 2.791 2.475 3.36 3.428.277.478.475.999.586 1.541-.244-.18-.528-.3-.827-.346-.638-.035-1.12.832-.793 2.077.276 1.127-.069 2.114.551 2.148m-7.772.07c-2.172-1.247-.345-4.45 1.827-3.204.655.364.724 1.524.603 2.268-.224 1.282-1.43 1.507-2.43.935m1.017-8.278c-.483.017-.827.606-.81.866s.379.416.878.243c.449-.156.863-.053.845-.312-.017-.26-.448-.814-.913-.797"/></svg>
